X: 108
M:4/4
L:1/8
K:G
fefg a2 "tr"ag|FA ~A2 FA ~A2| fefg a2 "tr"ag|BABc d2-d2|
fefg a2 "tr"ag|FA ~A2 FA ~A2|fde^c dfec|d2- dc d2 z2|| 

